X: 7
T: Pedar Bis
Z: JACKB
S: https://thesession.org/tunes/3733#setting27859
R: barndance
M: 4/4
L: 1/8
K: Ador
|: e>e dc Bc d2 | c/B/A Bc d2 d2 |
e>e dc Bc d2 | c/B/A Bc A2 A2 :||
|: A>B cA Bc d2 | c/B/A Bc d2 d2 |
AB cA Bc d2 | c/B/A Bc A2 A2 :||
